svg/bridge.svg

<svg xmlns="http://www.w3.org/2000/svg" viewBox="0 0 100 100">
    <path d="M73 28H27v3h-9v3H9v3H3v4H0v15h4v-3h4v-3h6v34h4v1h9V48h3v-2h4v-2h32v2h4v2h3v37h9v-1h4V50h6v3h4v3h4V41h-3v-4h-6v-3h-9v-3h-9v-3Z"/>
    <path fill="currentColor" d="M74 20H26v1h-4v2h-4v2h-4v1h-4v2H6v1H2v2h-4v2h4v-2h1v6h2v-6h1v-1h4v-2h1v6h2v-6h1v-1h4v-2h1v6h2v-6h1v-2h4v-1h3v6h2v-6h8v6h2v-6h8v6h2v-6h8v6h2v-6h8v6h2v-6h3v1h4v2h1v6h2v-6h1v2h4v1h1v6h2v-6h1v2h4v1h1v6h2v-6h1v2h4v-2h-4v-2h-4v-1h-4v-2h-4v-1h-4v-2h-4v-2h-4v-1Z"/>
  </svg>

<svg width="100" height="100" viewBox="0 0 100 100" fill="none" xmlns="http://www.w3.org/2000/svg">
<g clip-path="url(#clip0_106_1963)">
<path d="M73 28H27V31H18V34H9V37H3V41H0V56H4V53H8V50H14V84H18V85H27V48H30V46H34V44H66V46H70V48H73V85H82V84H86V50H92V53H96V56H100V41H97V37H91V34H82V31H73V28Z" fill="black"/>
<path d="M74 20H26V21H22V23H18V25H14V26H10V28H6V29H2V31H-2V33H2V31H3V37H5V31H6V30H10V28H11V34H13V28H14V27H18V25H19V31H21V25H22V23H26V22H29V28H31V22H39V28H41V22H49V28H51V22H59V28H61V22H69V28H71V22H74V23H78V25H79V31H81V25H82V27H86V28H87V34H89V28H90V30H94V31H95V37H97V31H98V33H102V31H98V29H94V28H90V26H86V25H82V23H78V21H74V20Z" fill="#7563BB"/>
</g>
<defs>
<clipPath id="clip0_106_1963">
<rect width="100" height="100" fill="white"/>
</clipPath>
</defs>
</svg>
